src/svg/zoom-out-outline.svg

<svg version="1.2" baseProfile="tiny" xmlns="http://www.w3.org/2000/svg" width="24" height="24" viewBox="0 0 24 24"><path d="M13 12h-5c-.275 0-.5-.225-.5-.5s.225-.5.5-.5h5c.275 0 .5.225.5.5s-.225.5-.5.5zM19.381 15.956l-2.245-2.283c.228-.687.364-1.412.364-2.173 0-3.859-3.141-7-7-7s-7 3.141-7 7 3.141 7 7 7c.761 0 1.488-.137 2.173-.364l2.397 2.386c.601.506 1.348.783 2.104.783 1.727 0 3.131-1.404 3.131-3.131 0-.84-.328-1.628-.924-2.218zm-3.901-1.11l2.492 2.531c.205.203.332.486.332.797 0 .625-.507 1.131-1.131 1.131-.312 0-.594-.127-.816-.313l-2.512-2.511c.646-.436 1.201-.991 1.635-1.635zm-9.98-3.346c0-2.757 2.243-5 5-5s5 2.243 5 5-2.243 5-5 5-5-2.243-5-5z"/></svg>

<?xml version="1.0" encoding="iso-8859-1"?>
<!-- Generator: Adobe Illustrator 16.2.1, SVG Export Plug-In . SVG Version: 6.00 Build 0)  -->
<svg version="1.2" baseProfile="tiny" id="Layer_1" xmlns="http://www.w3.org/2000/svg" xmlns:xlink="http://www.w3.org/1999/xlink"
	 x="0px" y="0px" width="24px" height="24px" viewBox="0 0 24 24" xml:space="preserve">
<g>
	<path d="M13,12H8c-0.275,0-0.5-0.225-0.5-0.5S7.725,11,8,11h5c0.275,0,0.5,0.225,0.5,0.5S13.275,12,13,12z"/>
</g>
<path d="M19.381,15.956l-2.245-2.283c0.228-0.687,0.364-1.412,0.364-2.173c0-3.859-3.141-7-7-7s-7,3.141-7,7s3.141,7,7,7
	c0.761,0,1.488-0.137,2.173-0.364l2.397,2.386c0.601,0.506,1.348,0.783,2.104,0.783c1.727,0,3.131-1.404,3.131-3.131
	C20.305,17.334,19.977,16.546,19.381,15.956z M15.48,14.846l2.492,2.531c0.205,0.203,0.332,0.486,0.332,0.797
	c0,0.625-0.507,1.131-1.131,1.131c-0.312,0-0.594-0.127-0.816-0.313l-2.512-2.511C14.491,16.045,15.046,15.49,15.48,14.846z
	 M5.5,11.5c0-2.757,2.243-5,5-5s5,2.243,5,5s-2.243,5-5,5S5.5,14.257,5.5,11.5z"/>
</svg>
